X:1
T:Trusting Jesus
T:Trusting Jesus
T:Ira David Sankey
T:Edgar Page Stites, 1876
T:Public Domain Courtesy of the Cyber Hymnal™
C:Ira David Sankey
Z:Public Domain
Z:Courtesy of the Cyber Hymnal™
%%score ( 1 2 ) ( 3 4 )
L:1/8
Q:1/4=105
M:6/8
K:G
V:1 treble 
V:2 treble 
V:3 bass 
V:4 bass 
V:1
 [DB]2 [CA] [Ec]2 [DB] | [DB]2 [CA] [B,G]3 | [EG]2 [CE] [EG]2 [CE] | (DG)[DB] [DA]3 | %4
w: 1.~Simp- ly trust- ing|ev- ery day,|Trust- ing through a|storm- * y way;|
w: 2.~Brightl- y does His|Spir- it shine|In- to this poor|heart * of mine;|
w: 3.~Sing- ing if my|way is clear,|Pray- ing if the|path * be drear;|
w: 4.~Trust- ing Him while|life shall last,|Trust- ing Him till|earth * be past;|
 [DB]2 [CA] [Ec]2 [DB] | [EA]2 [EG] [CE]3 | (DG)[DB] [Gd]2 [DB] | [DB]2 [CA] [B,G]3 || %8
w: E- ven when my|faith is small,|Trus- * ting Je- sus,|that is all.|
w: While He leads I|can- not fall;|Trust- * ing Je- sus,|that is all.|
w: If in dan- ger|for Him call;|Trust- * ing Je- sus,|that is all.|
w: Till with- in the|jas- per wall,|Trust- * ing Je- sus,|that is all.|
"^Refrain" [Gd]2 [DB] [Gd]2 [DB] | [DB]2 [DA] [DA]3 | [^DB]2 [DF] [EG]2 [EG] | [^CA]2 [CE] [DF]3 | %12
w: ||||
w: ||||
w: ||||
w: ||||
 [DG]2 [B,G] [DA]2 [DA] | [DB]2 [=FB] [Ec]3 | [Dd]2 [Ge] (dB)G | [GB]2 [FA] [DG]3 |] %16
w: ||||
w: ||||
w: ||||
w: ||||
V:2
 x6 | x6 | x6 | B,2 x4 | x6 | x6 | B,2 x4 | x6 || x6 | x6 | x6 | x6 | x6 | x6 | x3 G2 x | x6 |] %16
V:3
 [G,,G,]2 [G,,G,] [G,,G,]2 [G,,G,] | [D,F,]2 [D,F,] [G,,G,]3 | [C,G,]2 [C,G,] [C,G,]2 [C,G,] | %3
w: ~ ~ ~ ~|~ ~ ~|~ ~ ~ ~|
 [G,,G,]2 [G,,G,] [D,F,]3 | [G,,G,]2 [G,,G,] [G,,G,]2 [G,,G,] | [C,G,]2 [C,G,] [C,G,]3 | %6
w: ~ ~ ~|~ ~ ~ ~|~ ~ ~|
 (G,D,)[G,,G,] [G,B,]2 x | [D,F,]2 [D,F,] [G,,G,]3 || [G,B,]2 G, [G,B,]2 [G,,G,] | %9
w: ~ * ~ ~|~ ~ ~|~ Trust- ing as|
 [D,G,]2 [D,F,] [D,F,]3 | [B,,F,]2 [B,,B,] [E,B,]2 [E,B,] | [A,,A,]2 [A,,A,] A,3 | %12
w: the mo- ments|fly, Trust- ing as|the days go|
 [B,,G,]2 [G,,G,] [D,F,]2 [D,F,] | G,2 [G,,G,] [C,G,]3 | [B,,G,]2 [C,G,] (B,D)[E,B,] | %15
w: by; Trust- ing Him|what- e’er be-|fall, Trust- ing * Je-|
 [D,D]2 [D,C] [G,,B,]3 |] %16
w: sus, that is|
V:4
 x6 | x6 | x6 | x6 | x6 | x6 | G,,2 G, x3 | x6 || x6 | x6 | x6 | x3 (D,2 C,) | x6 | x6 | x3 D,2 x | %15
 x6 |] %16

